public/cloud-icons/azure/compute/workspace.svg

<?xml version="1.0" encoding="UTF-8" standalone="no"?>
<!-- Generated by Microsoft Visio, SVG Export Workspace.svg Page-1 -->

<svg
   xmlns:dc="http://purl.org/dc/elements/1.1/"
   xmlns:cc="http://creativecommons.org/ns#"
   xmlns:rdf="http://www.w3.org/1999/02/22-rdf-syntax-ns#"
   xmlns:svg="http://www.w3.org/2000/svg"
   xmlns="http://www.w3.org/2000/svg"
   xmlns:sodipodi="http://sodipodi.sourceforge.net/DTD/sodipodi-0.dtd"
   xmlns:inkscape="http://www.inkscape.org/namespaces/inkscape"
   width="56.689999"
   height="45.440407"
   viewBox="0 0 56.689997 45.440406"
   xml:space="preserve"
   class="st5"
   version="1.1"
   id="svg40"
   sodipodi:docname="Workspace.svg"
   style="font-size:12px;overflow:visible;color-interpolation-filters:sRGB;fill:none;fill-rule:evenodd;stroke-linecap:square;stroke-miterlimit:3"
   inkscape:version="0.92.5 (2060ec1f9f, 2020-04-08)"><metadata
   id="metadata44"><rdf:RDF><cc:Work
       rdf:about=""><dc:format>image/svg+xml</dc:format><dc:type
         rdf:resource="http://purl.org/dc/dcmitype/StillImage" /></cc:Work></rdf:RDF></metadata><sodipodi:namedview
   pagecolor="#ffffff"
   bordercolor="#666666"
   borderopacity="1"
   objecttolerance="10"
   gridtolerance="10"
   guidetolerance="10"
   inkscape:pageopacity="0"
   inkscape:pageshadow="2"
   inkscape:window-width="640"
   inkscape:window-height="480"
   id="namedview42"
   showgrid="false"
   inkscape:zoom="2.812688"
   inkscape:cx="28.346461"
   inkscape:cy="8.0207852"
   inkscape:window-x="0"
   inkscape:window-y="0"
   inkscape:window-maximized="0"
   inkscape:current-layer="svg40" />
	<style
   type="text/css"
   id="style2">
	<![CDATA[
		.st1 {fill:url(#grad0-5);stroke:none;stroke-linecap:butt;stroke-width:0.75}
		.st2 {fill:#50e6ff;stroke:none;stroke-linecap:butt;stroke-width:0.75}
		.st3 {fill:#ffffff;stroke:none;stroke-linecap:butt;stroke-width:0.75}
		.st4 {fill:#83b9f9;stroke:none;stroke-linecap:butt;stroke-width:0.75}
		.st5 {fill:none;fill-rule:evenodd;font-size:12px;overflow:visible;stroke-linecap:square;stroke-miterlimit:3}
	]]>
	</style>

	<defs
   id="Patterns_And_Gradients">
		<linearGradient
   id="grad0-5"
   x1="0"
   y1="57.578366"
   x2="45.948714"
   y2="57.578366"
   gradientTransform="scale(1.2337668,0.81052592)"
   gradientUnits="userSpaceOnUse">
			<stop
   offset="0.09"
   stop-color="#5ea0ef"
   stop-opacity="1"
   id="stop4" />
			<stop
   offset="1"
   stop-color="#0078d4"
   stop-opacity="1"
   id="stop6" />
		</linearGradient>
	</defs>
	<g
   id="g38"
   transform="translate(-5.66929,-4.5331278)">
		<title
   id="title10">Page-1</title>
		<g
   id="group11450-1"
   transform="translate(5.66929,-34.0157)">
			<title
   id="title12">Workspace.11450</title>
			<g
   id="shape11451-2"
   transform="translate(0,-8.11993)">
				<title
   id="title14">Sheet.11451</title>
				<path
   d="M 1.73,46.67 H 55 a 1.6645,1.54885 0 0 1 1.69,1.43 V 82.48 A 1.63121,1.51787 0 0 1 55,83.91 H 1.73 A 1.6645,1.54885 0 0 1 0,82.48 V 48.16 a 1.6645,1.54885 0 0 1 1.73,-1.49 z"
   class="st1"
   id="path16"
   inkscape:connector-curvature="0"
   style="fill:url(#grad0-5);stroke:none;stroke-width:0.75;stroke-linecap:butt" />
			</g>
			<g
   id="shape11452-6"
   transform="translate(37.185)">
				<title
   id="title19">Sheet.11452</title>
				<path
   d="m 0.73,59.27 8.86,4.78 8.89,4.73 a 0.53264,0.495633 0 0 1 0,0.83638 l -5.93,3.10362 4.23,6.75 a 2.92952,2.72598 0 0 1 -1.07,3.69 l -0.86,0.46 A 2.89623,2.695 0 0 1 10.89,82.66 L 6.66,75.85 0.77,78.95 A 0.49935,0.464656 0 0 1 0.004329,78.516321 L 0,59.71 a 0.53264,0.495633 0 0 1 0.732381,-0.433679 z"
   class="st2"
   id="path21"
   inkscape:connector-curvature="0"
   style="fill:#50e6ff;stroke:none;stroke-width:0.75;stroke-linecap:butt" />
			</g>
			<g
   id="group11453-8"
   transform="translate(23.4362,-30.0517)">
				<title
   id="title24">Sheet.11453</title>
				<g
   id="shape11454-9">
					<title
   id="title26">Sheet.11454</title>
					<path
   d="m 0.27,73.78 h 9.58 a 0.46606,0.433679 0 0 1 0.46606,0.433679 L 10.32,83.5 A 0.43277,0.402702 0 0 1 9.88723,83.902702 L 0.47,83.91 A 0.46606,0.433679 0 0 1 0.00394,83.476321 L 0,74.18 a 0.43277,0.402702 0 0 1 0.29961,-0.402702 z"
   class="st3"
   id="path28"
   inkscape:connector-curvature="0"
   style="fill:#ffffff;stroke:none;stroke-width:0.75;stroke-linecap:butt" />
				</g>
			</g>
			<g
   id="shape11455-11"
   transform="translate(23.4362,-15.0898)">
				<title
   id="title32">Sheet.11455</title>
				<path
   d="m 0.27,73.78 h 9.58 a 0.49935,0.464656 0 0 1 0.46606,0.433679 L 10.32,83.5 A 0.43277,0.402702 0 0 1 9.88723,83.902702 L 0.47,83.91 A 0.46606,0.433679 0 0 1 0.00394,83.476321 L 0,74.18 A 0.43277,0.402702 0 0 1 0.29961,73.777298 Z M 17.91,58.81 h 9.59 a 0.46606,0.433679 0 0 1 0.46606,0.433679 L 27.96,68.54 a 0.43277,0.402702 0 0 1 -0.43277,0.402702 L 18.08,68.94 A 0.46606,0.433679 0 0 1 17.61394,68.506321 L 17.61,59.22 a 0.43277,0.402702 0 0 1 0.29961,-0.402702 z"
   class="st4"
   id="path34"
   inkscape:connector-curvature="0"
   style="fill:#83b9f9;stroke:none;stroke-width:0.75;stroke-linecap:butt" />
			</g>
		</g>
	</g>
</svg>

<svg xmlns="http://www.w3.org/2000/svg" xml:space="preserve" width="56.69" height="45.44" style="font-size:12px;overflow:visible;color-interpolation-filters:sRGB;fill-rule:evenodd;stroke-linecap:square;stroke-miterlimit:3" viewBox="0 0 56.69 45.44"><defs><linearGradient id="a" x1="0" x2="45.949" y1="57.578" y2="57.578" gradientTransform="scale(1.23377 .81053)" gradientUnits="userSpaceOnUse"><stop offset=".09" stop-color="#5ea0ef"/><stop offset="1" stop-color="#0078d4"/></linearGradient></defs><g transform="translate(-5.67 -4.533)"><title>Page-1</title><g transform="translate(5.67 -34.016)"><title>Workspace.11450</title><g transform="translate(0 -8.12)"><title>Sheet.11451</title><path d="M1.73 46.67H55a1.665 1.549 0 0 1 1.69 1.43v34.38A1.631 1.518 0 0 1 55 83.91H1.73A1.665 1.549 0 0 1 0 82.48V48.16a1.665 1.549 0 0 1 1.73-1.49" style="fill:url(#a);stroke:none;stroke-width:.75;stroke-linecap:butt"/></g><g transform="translate(37.185)"><title>Sheet.11452</title><path d="m.73 59.27 8.86 4.78 8.89 4.73a.533.496 0 0 1 0 .836l-5.93 3.104 4.23 6.75a2.93 2.726 0 0 1-1.07 3.69l-.86.46a2.896 2.695 0 0 1-3.96-.96l-4.23-6.81-5.89 3.1a.5.465 0 0 1-.766-.434L0 59.71a.533.496 0 0 1 .732-.434z" style="fill:#50e6ff;stroke:none;stroke-width:.75;stroke-linecap:butt"/></g><g transform="translate(23.436 -30.052)"><title>Sheet.11453</title><title>Sheet.11454</title><path d="M.27 73.78h9.58a.466.434 0 0 1 .466.434l.004 9.286a.433.403 0 0 1-.433.403L.47 83.91a.466.434 0 0 1-.466-.434L0 74.18a.433.403 0 0 1 .3-.403z" style="fill:#fff;stroke:none;stroke-width:.75;stroke-linecap:butt"/></g><g transform="translate(23.436 -15.09)"><title>Sheet.11455</title><path d="M.27 73.78h9.58a.5.465 0 0 1 .466.434l.004 9.286a.433.403 0 0 1-.433.403L.47 83.91a.466.434 0 0 1-.466-.434L0 74.18a.433.403 0 0 1 .3-.403Zm17.64-14.97h9.59a.466.434 0 0 1 .466.434l-.006 9.296a.433.403 0 0 1-.433.403l-9.447-.003a.466.434 0 0 1-.466-.434l-.004-9.286a.433.403 0 0 1 .3-.403z" style="fill:#83b9f9;stroke:none;stroke-width:.75;stroke-linecap:butt"/></g></g></g></svg>
